assets/svg/expand.svg

<?xml version="1.0" encoding="UTF-8"?>
<svg width="1000px" height="1000px" viewBox="0 0 1000 1000" version="1.1" xmlns="http://www.w3.org/2000/svg" xmlns:xlink="http://www.w3.org/1999/xlink">
    <!-- Generator: sketchtool 52.4 (67378) - http://www.bohemiancoding.com/sketch -->
    <title>expand</title>
    <desc>Created with sketchtool.</desc>
    <g id="新版图标" stroke="none" stroke-width="1" fill="none" fill-rule="evenodd">
        <g id="expand" fill="#323233">
            <g id="圆角-全屏-面">
                <path d="M315.811128,722.222349 L436.117579,603.498813 C446.809109,592.947955 447.265277,575.366459 437.136459,564.229442 C427.007641,553.092426 410.129414,552.61725 399.437884,563.168108 L277.777778,683.22749 L277.777778,556.055683 C277.777778,555.77954 277.55392,555.555683 277.277778,555.555683 L222.722222,555.555683 C222.44608,555.555683 222.222222,555.77954 222.222222,556.055683 L222.222222,777.277905 C222.222222,777.554047 222.44608,777.777905 222.722222,777.777905 L248.836227,777.777905 C248.874368,777.77799 248.912508,777.77799 248.950648,777.777905 L277.277778,777.777905 L443.944444,777.777905 C444.220587,777.777905 444.444444,777.554047 444.444444,777.277905 L444.444444,722.722349 C444.444444,722.446207 444.220587,722.222349 443.944444,722.222349 L315.811128,722.222349 Z M751.163772,222.222222 C751.125632,222.222138 751.087492,222.222138 751.049352,222.222222 L556.055556,222.222222 C555.779413,222.222222 555.555556,222.44608 555.555556,222.722222 L555.555556,277.277778 C555.555556,277.55392 555.779413,277.777778 556.055556,277.777778 L684.188872,277.777778 L563.882421,396.501314 C553.190891,407.052172 552.734723,424.633668 562.863541,435.770685 C572.992359,446.907701 589.870586,447.382877 600.562116,436.832019 L722.222222,316.772638 L722.222222,443.944444 C722.222222,444.220587 722.44608,444.444444 722.722222,444.444444 L777.277778,444.444444 C777.55392,444.444444 777.777778,444.220587 777.777778,443.944444 L777.777778,222.722222 C777.777778,222.584151 777.721813,222.459151 777.631331,222.368669 C777.540849,222.278187 777.415849,222.222222 777.277778,222.222222 L751.163773,222.222222 Z M112.111111,111.111111 L887.888889,111.111111 C888.441174,111.111111 888.888889,111.558826 888.888889,112.111111 L888.888889,887.888889 C888.888889,888.441174 888.441174,888.888889 887.888889,888.888889 L112.111111,888.888889 C111.558826,888.888889 111.111111,888.441174 111.111111,887.888889 L111.111111,112.111111 C111.111111,111.558826 111.558826,111.111111 112.111111,111.111111 Z" id="Combined-Shape"></path>
            </g>
        </g>
    </g>
</svg>

<svg width="1000" height="1000" xmlns="http://www.w3.org/2000/svg"><path d="M315.811 722.222L436.118 603.5c10.691-10.551 11.147-28.133 1.018-39.27-10.128-11.137-27.007-11.612-37.698-1.06l-121.66 120.058V556.056a.5.5 0 0 0-.5-.5h-54.556a.5.5 0 0 0-.5.5v221.222a.5.5 0 0 0 .5.5H443.944a.5.5 0 0 0 .5-.5v-54.556a.5.5 0 0 0-.5-.5H315.811zm435.353-500H556.056a.5.5 0 0 0-.5.5v54.556a.5.5 0 0 0 .5.5h128.133L563.882 396.5c-10.691 10.551-11.147 28.133-1.018 39.27 10.128 11.137 27.007 11.612 37.698 1.061l121.66-120.06v127.172a.5.5 0 0 0 .5.5h54.556a.5.5 0 0 0 .5-.5V222.722a.498.498 0 0 0-.5-.5h-26.114zM112.11 111.112H887.89a1 1 0 0 1 1 1v775.777a1 1 0 0 1-1 1H112.11a1 1 0 0 1-1-1V112.11a1 1 0 0 1 1-1z" fill="#323233" fill-rule="evenodd"/></svg>
